dist/img/car_icon.svg

<svg width="42" height="42" viewBox="0 0 42 42" fill="none" xmlns="http://www.w3.org/2000/svg">
<path d="M17.5 19.8335H21V22.1668H17.5V19.8335Z" fill="#C5528B"/>
<path d="M30.8583 16.5316C28.7892 13.1457 25.9665 10.2831 22.61 8.16664C21.0594 7.18389 19.2918 6.59566 17.4615 6.4533C15.6312 6.31094 13.7939 6.6188 12.11 7.34997C10.6371 8.04473 9.35541 9.08757 8.37569 10.3885C7.39596 11.6893 6.74762 13.2091 6.48665 14.8166C6.39331 15.365 6.32331 15.89 6.25331 16.4033C5.16102 16.5804 4.16717 17.1398 3.44915 17.9817C2.73113 18.8237 2.33566 19.8934 2.33331 21V28.1516C2.33331 28.7705 2.57915 29.364 3.01673 29.8016C3.45432 30.2391 4.04781 30.485 4.66665 30.485V21C4.66665 20.3811 4.91248 19.7876 5.35006 19.3501C5.78765 18.9125 6.38114 18.6666 6.99998 18.6666H28.8516C31.1002 18.6697 33.2557 19.5643 34.8457 21.1543C36.4356 22.7442 37.3302 24.8998 37.3333 27.1483V28H35C34.5072 26.7984 33.5894 25.8204 32.4215 25.2524C31.2536 24.6845 29.9176 24.5664 28.6682 24.9207C27.4188 25.2751 26.3436 26.077 25.6478 27.1735C24.952 28.27 24.6843 29.5843 24.8957 30.8656C25.1071 32.1469 25.7829 33.3055 26.7941 34.1204C27.8053 34.9352 29.0811 35.3492 30.378 35.2834C31.675 35.2176 32.9023 34.6766 33.8258 33.7635C34.7493 32.8505 35.3044 31.6294 35.385 30.3333H37.3333C37.9522 30.3333 38.5456 30.0875 38.9832 29.6499C39.4208 29.2123 39.6666 28.6188 39.6666 28V27.1483C39.6619 24.6306 38.7799 22.1932 37.1723 20.2555C35.5646 18.3178 33.3319 17.001 30.8583 16.5316ZM12.8333 16.3333H8.08498C8.08498 15.9716 8.18998 15.5983 8.25998 15.1666C8.46155 13.885 8.98757 12.6762 9.78804 11.6552C10.5885 10.6342 11.6368 9.83491 12.8333 9.33331V16.3333ZM15.1666 16.3333V8.84331C17.3448 8.56046 19.5537 9.03852 21.42 10.1966C23.9677 11.7835 26.1666 13.8713 27.8833 16.3333H15.1666ZM30.1 33.11C29.5231 33.11 28.9592 32.9389 28.4796 32.6184C27.9999 32.2979 27.6261 31.8424 27.4053 31.3095C27.1846 30.7765 27.1268 30.1901 27.2394 29.6243C27.3519 29.0585 27.6297 28.5388 28.0376 28.1309C28.4455 27.723 28.9652 27.4452 29.531 27.3327C30.0967 27.2201 30.6832 27.2779 31.2161 27.4987C31.7491 27.7194 32.2046 28.0932 32.5251 28.5729C32.8456 29.0525 33.0166 29.6164 33.0166 30.1933C33.0166 30.9668 32.7094 31.7087 32.1624 32.2557C31.6154 32.8027 30.8735 33.11 30.1 33.11V33.11Z" fill="#C5528B"/>
<path d="M16.5317 28C16.039 26.7984 15.1211 25.8204 13.9532 25.2524C12.7854 24.6845 11.4493 24.5664 10.1999 24.9207C8.95053 25.2751 7.87536 26.077 7.17954 27.1735C6.48372 28.27 6.21598 29.5843 6.42739 30.8656C6.63881 32.1469 7.31459 33.3055 8.32578 34.1204C9.33697 34.9352 10.6128 35.3492 11.9097 35.2834C13.2067 35.2176 14.4341 34.6766 15.3576 33.7635C16.2811 32.8505 16.8361 31.6294 16.9167 30.3333H23.1V30.0416C23.0769 29.3533 23.1556 28.6653 23.3334 28H16.5317ZM11.6667 33.11C11.0898 33.11 10.5259 32.9389 10.0463 32.6184C9.56664 32.2979 9.1928 31.8424 8.97204 31.3095C8.75129 30.7765 8.69353 30.1901 8.80607 29.6243C8.91861 29.0585 9.1964 28.5388 9.6043 28.1309C10.0122 27.723 10.5319 27.4452 11.0977 27.3327C11.6635 27.2201 12.2499 27.2779 12.7829 27.4987C13.3158 27.7194 13.7713 28.0932 14.0918 28.5729C14.4123 29.0525 14.5834 29.6164 14.5834 30.1933C14.5834 30.9669 14.2761 31.7087 13.7291 32.2557C13.1821 32.8027 12.4402 33.11 11.6667 33.11V33.11Z" fill="#C5528B"/>
<path d="M37.5666 6.84429C37.0713 6.58395 36.4937 6.5281 35.9576 6.68873C35.9315 6.14354 35.6966 5.62932 35.3015 5.25271C34.9064 4.87611 34.3816 4.66602 33.8357 4.66602C33.2899 4.66602 32.7651 4.87611 32.37 5.25271C31.9749 5.62932 31.74 6.14354 31.7139 6.68873C31.1793 6.52774 30.6033 6.5782 30.1048 6.8297C29.7378 7.02263 29.4352 7.31878 29.2344 7.68162C29.0337 8.04446 28.9435 8.45812 28.975 8.8716C29.0065 9.28508 29.1584 9.68029 29.4119 10.0085C29.6653 10.3367 30.0093 10.5835 30.4014 10.7186C30.1511 11.0747 30.0154 11.4986 30.0125 11.9339C30.0146 12.0561 30.026 12.178 30.0465 12.2985C30.1284 12.7921 30.383 13.2406 30.765 13.5639C31.1471 13.8871 31.6315 14.064 32.1319 14.063C32.2355 14.0701 32.3395 14.0701 32.443 14.063C32.9987 13.9755 33.4978 13.6736 33.8333 13.2221C34.1723 13.6663 34.671 13.9609 35.2236 14.0436C35.3272 14.0507 35.4311 14.0507 35.5347 14.0436C35.9227 14.0431 36.3031 13.9362 36.6345 13.7344C36.9659 13.5326 37.2355 13.2438 37.414 12.8993C37.5926 12.5548 37.6731 12.1679 37.6468 11.7808C37.6206 11.3937 37.4886 11.0213 37.2653 10.704C37.6592 10.5713 38.0055 10.3256 38.2609 9.99763C38.5164 9.66961 38.6697 9.27371 38.7018 8.85922C38.7339 8.44472 38.6434 8.02993 38.4416 7.66647C38.2398 7.30302 37.9355 7.00695 37.5666 6.81512V6.84429ZM33.0264 5.90123C33.2435 5.69325 33.5326 5.57715 33.8333 5.57715C34.134 5.57715 34.4231 5.69325 34.6403 5.90123C34.8061 6.06728 34.9186 6.27895 34.9637 6.50924C35.0087 6.73954 34.9841 6.97802 34.893 7.19429L34.7666 7.48109L34.4458 7.76304C34.2486 7.69533 34.0418 7.65924 33.8333 7.65609C33.5638 7.65635 33.2973 7.71263 33.0507 7.82137L32.7785 7.19429C32.6841 6.97898 32.6573 6.74012 32.7016 6.50925C32.7458 6.27839 32.8591 6.06638 33.0264 5.90123ZM30.0611 9.22623C29.9526 8.98744 29.9288 8.71876 29.9937 8.46461C30.0585 8.21047 30.2082 7.98607 30.4179 7.82851C30.6276 7.67095 30.8848 7.58966 31.1469 7.59809C31.4091 7.60651 31.6605 7.70414 31.8597 7.87484L32.0979 8.08387L32.268 8.47276C32.0245 8.79858 31.8916 9.19378 31.8889 9.60054C31.8831 9.67334 31.8831 9.74648 31.8889 9.81929H31.6215L31.2132 9.85817C30.9796 9.88282 30.7441 9.8355 30.5382 9.72256C30.3323 9.60961 30.1658 9.43643 30.0611 9.22623ZM33.2694 12.1818C33.2109 12.4413 33.0647 12.6727 32.8556 12.837C32.6464 13.0014 32.3869 13.0886 32.121 13.0841C31.855 13.0795 31.5987 12.9834 31.3953 12.812C31.1919 12.6405 31.0537 12.4043 31.0041 12.1429C30.9995 12.0749 30.9995 12.0067 31.0041 11.9387C31.0059 11.7411 31.0593 11.5475 31.1591 11.3769C31.2589 11.2064 31.4015 11.0649 31.5729 10.9665L31.8208 10.7915L32.2632 10.7429C32.542 11.1308 32.9538 11.4024 33.4201 11.5061L33.2694 12.1818ZM33.8333 10.5728C33.641 10.5728 33.4531 10.5157 33.2932 10.4089C33.1333 10.3021 33.0087 10.1502 32.9351 9.97259C32.8615 9.79494 32.8423 9.59946 32.8798 9.41086C32.9173 9.22227 33.0099 9.04904 33.1458 8.91307C33.2818 8.7771 33.455 8.68451 33.6436 8.64699C33.8322 8.60948 34.0277 8.62873 34.2054 8.70232C34.383 8.7759 34.5349 8.90052 34.6417 9.0604C34.7485 9.22028 34.8055 9.40825 34.8055 9.60054C34.8055 9.85839 34.7031 10.1057 34.5208 10.288C34.3384 10.4703 34.0912 10.5728 33.8333 10.5728ZM36.6625 12.138C36.6123 12.4346 36.4477 12.6997 36.204 12.8761C35.9603 13.0525 35.6571 13.1261 35.3597 13.0811C35.1253 13.0481 34.9066 12.9442 34.7329 12.7835C34.5592 12.6228 34.4386 12.4129 34.3875 12.1818L34.3194 11.8901L34.4215 11.4429C34.8699 11.2968 35.25 10.9928 35.491 10.5873L35.734 10.7332H35.7778L36.0986 10.9228C36.307 11.0418 36.4733 11.2227 36.5743 11.4405C36.6754 11.6582 36.7062 11.902 36.6625 12.138ZM37.6055 9.22137C37.5099 9.41459 37.3624 9.57739 37.1796 9.69158C36.9967 9.80576 36.7857 9.86681 36.5701 9.8679H36.4534L36.1423 9.81929L35.7778 9.61998C35.7771 9.14734 35.6043 8.69113 35.2916 8.33665L35.5007 8.15679L35.8069 7.87484C36.0066 7.69729 36.2619 7.59468 36.5289 7.5846C36.796 7.57452 37.0582 7.65758 37.2708 7.81957C37.4833 7.98156 37.6329 8.2124 37.694 8.47256C37.7551 8.73273 37.7238 9.00603 37.6055 9.24567V9.22137Z" fill="#C5528B"/>
<path d="M37.5666 6.84429C37.0713 6.58395 36.4937 6.5281 35.9576 6.68873C35.9315 6.14354 35.6966 5.62932 35.3015 5.25271C34.9064 4.87611 34.3816 4.66602 33.8357 4.66602C33.2899 4.66602 32.7651 4.87611 32.37 5.25271C31.9749 5.62932 31.74 6.14354 31.7139 6.68873C31.1793 6.52774 30.6033 6.5782 30.1048 6.8297C29.7378 7.02263 29.4352 7.31878 29.2344 7.68162C29.0337 8.04446 28.9435 8.45812 28.975 8.8716C29.0065 9.28508 29.1584 9.68029 29.4119 10.0085C29.6653 10.3367 30.0093 10.5835 30.4014 10.7186C30.1511 11.0747 30.0154 11.4986 30.0125 11.9339C30.0146 12.0561 30.026 12.178 30.0465 12.2985C30.1284 12.7921 30.383 13.2406 30.765 13.5639C31.1471 13.8871 31.6315 14.064 32.1319 14.063C32.2355 14.0701 32.3395 14.0701 32.443 14.063C32.9987 13.9755 33.4978 13.6736 33.8333 13.2221C34.1723 13.6663 34.671 13.9609 35.2236 14.0436C35.3272 14.0507 35.4311 14.0507 35.5347 14.0436C35.9227 14.0431 36.3031 13.9362 36.6345 13.7344C36.9659 13.5326 37.2355 13.2438 37.414 12.8993C37.5926 12.5548 37.6731 12.1679 37.6468 11.7808C37.6206 11.3937 37.4886 11.0213 37.2653 10.704C37.6592 10.5713 38.0055 10.3256 38.2609 9.99763C38.5164 9.66961 38.6697 9.27371 38.7018 8.85922C38.7339 8.44472 38.6434 8.02993 38.4416 7.66647C38.2398 7.30302 37.9355 7.00695 37.5666 6.81512V6.84429ZM33.0264 5.90123C33.2435 5.69325 33.5326 5.57715 33.8333 5.57715C34.134 5.57715 34.4231 5.69325 34.6403 5.90123C34.8061 6.06728 34.9186 6.27895 34.9637 6.50924C35.0087 6.73954 34.9841 6.97802 34.893 7.19429L34.7666 7.48109L34.4458 7.76304C34.2486 7.69533 34.0418 7.65924 33.8333 7.65609C33.5638 7.65635 33.2973 7.71263 33.0507 7.82137L32.7785 7.19429C32.6841 6.97898 32.6573 6.74012 32.7016 6.50925C32.7458 6.27839 32.8591 6.06638 33.0264 5.90123ZM30.0611 9.22623C29.9526 8.98744 29.9288 8.71876 29.9937 8.46461C30.0585 8.21047 30.2082 7.98607 30.4179 7.82851C30.6276 7.67095 30.8848 7.58966 31.1469 7.59809C31.4091 7.60651 31.6605 7.70414 31.8597 7.87484L32.0979 8.08387L32.268 8.47276C32.0245 8.79858 31.8916 9.19378 31.8889 9.60054C31.8831 9.67334 31.8831 9.74648 31.8889 9.81929H31.6215L31.2132 9.85817C30.9796 9.88282 30.7441 9.8355 30.5382 9.72256C30.3323 9.60961 30.1658 9.43643 30.0611 9.22623ZM33.2694 12.1818C33.2109 12.4413 33.0647 12.6727 32.8556 12.837C32.6464 13.0014 32.3869 13.0886 32.121 13.0841C31.855 13.0795 31.5987 12.9834 31.3953 12.812C31.1919 12.6405 31.0537 12.4043 31.0041 12.1429C30.9995 12.0749 30.9995 12.0067 31.0041 11.9387C31.0059 11.7411 31.0593 11.5475 31.1591 11.3769C31.2589 11.2064 31.4015 11.0649 31.5729 10.9665L31.8208 10.7915L32.2632 10.7429C32.542 11.1308 32.9538 11.4024 33.4201 11.5061L33.2694 12.1818ZM33.8333 10.5728C33.641 10.5728 33.4531 10.5157 33.2932 10.4089C33.1333 10.3021 33.0087 10.1502 32.9351 9.97259C32.8615 9.79494 32.8423 9.59946 32.8798 9.41086C32.9173 9.22227 33.0099 9.04904 33.1458 8.91307C33.2818 8.7771 33.455 8.68451 33.6436 8.64699C33.8322 8.60948 34.0277 8.62873 34.2054 8.70232C34.383 8.7759 34.5349 8.90052 34.6417 9.0604C34.7485 9.22028 34.8055 9.40825 34.8055 9.60054C34.8055 9.85839 34.7031 10.1057 34.5208 10.288C34.3384 10.4703 34.0912 10.5728 33.8333 10.5728ZM36.6625 12.138C36.6123 12.4346 36.4477 12.6997 36.204 12.8761C35.9603 13.0525 35.6571 13.1261 35.3597 13.0811C35.1253 13.0481 34.9066 12.9442 34.7329 12.7835C34.5592 12.6228 34.4386 12.4129 34.3875 12.1818L34.3194 11.8901L34.4215 11.4429C34.8699 11.2968 35.25 10.9928 35.491 10.5873L35.734 10.7332H35.7778L36.0986 10.9228C36.307 11.0418 36.4733 11.2227 36.5743 11.4405C36.6754 11.6582 36.7062 11.902 36.6625 12.138ZM37.6055 9.22137C37.5099 9.41459 37.3624 9.57739 37.1796 9.69158C36.9967 9.80576 36.7857 9.86681 36.5701 9.8679H36.4534L36.1423 9.81929L35.7778 9.61998C35.7771 9.14734 35.6043 8.69113 35.2916 8.33665L35.5007 8.15679L35.8069 7.87484C36.0066 7.69729 36.2619 7.59468 36.5289 7.5846C36.796 7.57452 37.0582 7.65758 37.2708 7.81957C37.4833 7.98156 37.6329 8.2124 37.694 8.47256C37.7551 8.73273 37.7238 9.00603 37.6055 9.24567V9.22137Z" stroke="#C5528B"/>
</svg>

<svg width="42" height="42" fill="none" xmlns="http://www.w3.org/2000/svg"><path d="M17.5 19.834H21v2.333h-3.5v-2.334z" fill="#C5528B"/><path d="M30.858 16.532a25.783 25.783 0 00-8.248-8.365 11.247 11.247 0 00-10.5-.817 10.033 10.033 0 00-5.623 7.467c-.094.548-.164 1.073-.234 1.586A4.667 4.667 0 002.333 21v7.152a2.333 2.333 0 002.334 2.333V21A2.333 2.333 0 017 18.667h21.852a8.493 8.493 0 018.481 8.481V28H35a5.285 5.285 0 10.385 2.333h1.948A2.333 2.333 0 0039.667 28v-.852a10.827 10.827 0 00-8.809-10.616zm-18.025-.199H8.085c0-.361.105-.735.175-1.166a7.607 7.607 0 014.573-5.834v7zm2.334 0v-7.49a9.532 9.532 0 016.253 1.354 22.167 22.167 0 016.463 6.136H15.167zM30.1 33.11a2.916 2.916 0 110-5.833 2.916 2.916 0 010 5.833z" fill="#C5528B"/><path d="M16.532 28a5.285 5.285 0 10.385 2.333H23.1v-.291A6.999 6.999 0 0123.333 28h-6.801zm-4.865 5.11a2.916 2.916 0 110-5.833 2.916 2.916 0 010 5.833zm25.9-26.266a2.139 2.139 0 00-1.61-.155 2.124 2.124 0 00-4.243 0 2.178 2.178 0 00-1.61.14 2.125 2.125 0 00.297 3.89 2.14 2.14 0 00-.389 1.215c.003.122.014.244.035.365a2.11 2.11 0 002.085 1.764c.104.007.208.007.311 0a2.148 2.148 0 001.39-.84c.34.443.838.738 1.39.82.104.008.208.008.312 0a2.12 2.12 0 001.73-3.339 2.12 2.12 0 00.302-3.889v.03zm-4.54-.943a1.166 1.166 0 011.613 0 1.182 1.182 0 01.253 1.293l-.126.287-.321.282a1.978 1.978 0 00-.613-.107c-.27 0-.536.057-.782.165l-.273-.627a1.161 1.161 0 01.248-1.293zM30.06 9.226a1.152 1.152 0 011.799-1.351l.238.209.17.389a1.905 1.905 0 00-.38 1.128 1.377 1.377 0 000 .218h-.267l-.408.04a1.152 1.152 0 01-1.152-.633zm3.208 2.956a1.157 1.157 0 01-2.265-.04 1.513 1.513 0 010-.203 1.133 1.133 0 01.569-.973l.248-.175.442-.048c.279.388.69.66 1.157.763l-.15.676zm.564-1.61a.972.972 0 110-1.944.972.972 0 010 1.945zm2.83 1.566a1.148 1.148 0 01-1.303.943 1.162 1.162 0 01-.972-.9l-.069-.29.102-.448c.449-.146.829-.45 1.07-.856l.243.146h.044l.32.19a1.156 1.156 0 01.565 1.215zm.943-2.917a1.162 1.162 0 01-1.036.647h-.117l-.31-.049-.365-.199c0-.473-.174-.929-.486-1.283l.209-.18.306-.282a1.152 1.152 0 011.798 1.37v-.024z" fill="#C5528B"/><path d="M37.567 6.844a2.139 2.139 0 00-1.61-.155 2.124 2.124 0 00-4.243 0 2.178 2.178 0 00-1.61.14 2.125 2.125 0 00.297 3.89 2.14 2.14 0 00-.389 1.215c.003.122.014.244.035.365a2.11 2.11 0 002.085 1.764c.104.007.208.007.311 0a2.148 2.148 0 001.39-.84c.34.443.838.738 1.39.82.104.008.208.008.312 0a2.12 2.12 0 001.73-3.339 2.12 2.12 0 00.302-3.889v.03zm-4.54-.943a1.166 1.166 0 011.613 0 1.182 1.182 0 01.253 1.293l-.126.287-.321.282a1.978 1.978 0 00-.613-.107c-.27 0-.536.057-.782.165l-.273-.627a1.161 1.161 0 01.248-1.293zM30.06 9.226a1.152 1.152 0 011.799-1.351l.238.209.17.389a1.905 1.905 0 00-.38 1.128 1.377 1.377 0 000 .218h-.267l-.408.04a1.152 1.152 0 01-1.152-.633zm3.208 2.956a1.157 1.157 0 01-2.265-.04 1.513 1.513 0 010-.203 1.133 1.133 0 01.569-.973l.248-.175.442-.048c.279.388.69.66 1.157.763l-.15.676zm.564-1.61a.972.972 0 110-1.944.972.972 0 010 1.945zm2.83 1.566a1.148 1.148 0 01-1.303.943 1.162 1.162 0 01-.972-.9l-.069-.29.102-.448c.449-.146.829-.45 1.07-.856l.243.146h.044l.32.19a1.156 1.156 0 01.565 1.215zm.943-2.917a1.162 1.162 0 01-1.036.647h-.117l-.31-.049-.365-.199c0-.473-.174-.929-.486-1.283l.209-.18.306-.282a1.152 1.152 0 011.798 1.37v-.024z" stroke="#C5528B"/></svg>
